common/src/main/resources/files/plugins/datagrip/sybaseFileType.svg

<!--
  - The MIT License (MIT)
  -
  - Copyright (c) 2015-2024 Elior "Mallowigi" Boukhobza
  -
  - Permission is hereby granted, free of charge, to any person obtaining a copy
  - of this software and associated documentation files (the "Software"), to deal
  - in the Software without restriction, including without limitation the rights
  - to use, copy, modify, merge, publish, distribute, sublicense, and/or sell
  - copies of the Software, and to permit persons to whom the Software is
  - furnished to do so, subject to the following conditions:
  -
  - The above copyright notice and this permission notice shall be included in all
  - copies or substantial portions of the Software.
  -
  - THE SOFTWARE IS PROVIDED "AS IS", WITHOUT WARRANTY OF ANY KIND, EXPRESS OR
  - IMPLIED, INCLUDING BUT NOT LIMITED TO THE WARRANTIES OF MERCHANTABILITY,
  - FITNESS FOR A PARTICULAR PURPOSE AND NONINFRINGEMENT. IN NO EVENT SHALL THE
  - AUTHORS OR COPYRIGHT HOLDERS BE LIABLE FOR ANY CLAIM, DAMAGES OR OTHER
  - LIABILITY, WHETHER IN AN ACTION OF CONTRACT, TORT OR OTHERWISE, ARISING FROM,
  - OUT OF OR IN CONNECTION WITH THE SOFTWARE OR THE USE OR OTHER DEALINGS IN THE
  - SOFTWARE.
  -->
<svg data-big="true" width="16px" height="16px" viewBox="0 0 16 16" fill="#355CFF" xmlns="http://www.w3.org/2000/svg">
  <path
    d="M2.766 15C1.62014 13.8425 1.13399 12.1192 1.0248 10.4975C1.00806 10.2489 1 10.0002 1 9.75349C1 8.37915 1.25006 7.06642 1.64267 6.17554C3.05581 2.96895 6.19125 1.17832 9.05986 1.01269C10.4986 0.929614 11.9053 1.25324 13.0035 2.05119C14.0609 2.81945 14.7938 4.00045 15 5.57692V6.78636C14.964 6.99825 14.9064 7.205 14.8247 7.40885C14.6249 7.90715 14.294 8.35478 13.8466 8.80216C12.8444 9.80437 11.4999 9.81254 10.685 9.41607C9.97483 9.07054 9.61488 8.35143 9.6851 7.66693C9.75871 6.94947 10.2939 6.33464 11.1965 6.20411L11.3396 7.19381C10.8699 7.26174 10.7046 7.52842 10.6799 7.76899C10.6518 8.04251 10.7959 8.35792 11.1225 8.51686C11.5964 8.74739 12.4709 8.76366 13.1395 8.09506C13.5275 7.70703 13.7631 7.36942 13.8965 7.03664C14.028 6.70889 14.0736 6.35294 14.031 5.90677C13.8948 4.47746 13.277 3.48598 12.4157 2.86019C11.5434 2.22638 10.379 1.93818 9.11751 2.01102C6.58576 2.15721 3.8047 3.74932 2.55775 6.57882C2.17388 7.44987 1.92079 8.91927 2.02254 10.4304C2.12427 11.9411 2.57297 13.3869 3.48133 14.3012L4.25024 15H2.766Z"
  />
</svg>

<svg xmlns="http://www.w3.org/2000/svg" width="16" height="16" fill="#355CFF" data-big="true"><path d="M2.766 15c-1.146-1.158-1.632-2.88-1.741-4.502A11 11 0 0 1 1 9.753c0-1.374.25-2.687.643-3.577C3.056 2.969 6.19 1.178 9.06 1.013c1.439-.083 2.845.24 3.944 1.038 1.057.768 1.79 1.95 1.996 3.526v1.21a3 3 0 0 1-.175.622c-.2.498-.531.946-.978 1.393-1.003 1.002-2.347 1.01-3.162.614a1.76 1.76 0 0 1-1-1.75c.074-.717.609-1.331 1.511-1.462l.144.99c-.47.068-.635.334-.66.575a.76.76 0 0 0 .443.748c.473.23 1.348.247 2.017-.422.387-.388.623-.726.756-1.058.132-.328.178-.684.135-1.13-.136-1.43-.754-2.421-1.615-3.047-.873-.634-2.037-.922-3.298-.849-2.532.146-5.313 1.738-6.56 4.568-.384.87-.637 2.34-.535 3.851s.55 2.957 1.458 3.871l.77.699z"/></svg>
